projects/plugins/jetpack/images/jetpack-themes.svg

<svg viewBox="0 0 1600 1168" xmlns="http://www.w3.org/2000/svg"><path d="m543.1 757.13v-634.13a48 48 0 0 1 48-48h709.73a48 48 0 0 1 48 48v634.13z" fill="#c6def6"/><path d="m625.53 313.91h245.17v337.68h-245.17zm338.49 0h287.56v356.15h-287.58zm-420.92-75.44v-115.47a48 48 0 0 1 48-48h709.73a48 48 0 0 1 48 48v115.47z" fill="#5198d9"/><path d="m250 1119.17v-627.52a47.69 47.69 0 0 1 47.91-47.47h709.81a47.69 47.69 0 0 1 47.84 47.47v627.52z" fill="#e3dfe2"/><path d="m856.27 602.5h-520.06v-19.65a42.47 42.47 0 0 1 42.17-42.55h477.89zm-297.72 125.12h-222.34v-62.12h280.34v4.12a58 58 0 0 1 -58 58z" fill="#2fb41f"/><path d="m250 830.51h426.32v288.66h-426.32z" fill="#5198d9"/><path d="m652.84 830.51h398v288.66h-398z" fill="#fff"/><path d="m1050.87 830.51v284.49h-398" fill="#fff" stroke="#e3dfe2" stroke-miterlimit="10" stroke-width="11.41"/><path d="m978.67 881.37v172.37h-182.09" fill="#2fb41f"/><path d="m1071.48 833.09c-35 4.56-70.07 6.62-105 7.8s-70.07 1-105 1.47c-70.07.89-139.84 1-210.13 1.33s-139.84-.44-210.06-1.33c-35-.44-70-.51-105-1.47s-70-2.87-105-7.8v-5.74c35-4.64 70-6.7 105-7.88s70.06-1 105-1.47c70.07-.88 139.85-1 210.06-1.32s139.84.44 210.13 1.32c35 .44 70 .52 105 1.47a1008.55 1008.55 0 0 1 105 7.88z" fill="#2271b1"/><path d="m0 0h1600v1168h-1600z" fill="none"/></svg>

<svg xmlns="http://www.w3.org/2000/svg" viewBox="0 0 1600 1168"><defs><style>.c1{fill:#2271B1;}.c2{fill:#5198D9;}.c3{fill:#C6DEF6;}.c5{fill:#2FB41F;}.c8{fill:#E3DFE2;}.c9{fill:#FFF;}.c10{fill:none;}.s1{stroke:#E3DFE2;stroke-miterlimit:10;stroke-width:11.41px;}</style></defs><title>jetpack-themes</title><g id="jetpack-themes"><path class="c3" d="M543.1 757.13V123a48 48 0 0 1 48-48h709.73a48 48 0 0 1 48 48v634.13z"/><path class="c2" d="M625.53 313.91H870.7v337.68H625.53zm338.49 0h287.56v356.15H964zM543.1 238.47V123a48 48 0 0 1 48-48h709.73a48 48 0 0 1 48 48v115.47z"/><path class="c8" d="M250 1119.17V491.65a47.69 47.69 0 0 1 47.91-47.47h709.81a47.69 47.69 0 0 1 47.84 47.47v627.52z"/><path class="c5" d="M856.27 602.5H336.21v-19.65a42.47 42.47 0 0 1 42.17-42.55h477.89zM558.55 727.62H336.21V665.5h280.34v4.12a58 58 0 0 1-58 58z"/><path class="c2" d="M250 830.51h426.32v288.66H250z"/><path class="c9" d="M652.84 830.51h398v288.66h-398z"/><path class="c9 s1" d="M1050.87 830.51V1115h-398"/><path class="c5" d="M978.67 881.37v172.37H796.58"/><path class="c1" d="M1071.48 833.09c-35 4.56-70.07 6.62-105 7.8s-70.07 1-105 1.47c-70.07.89-139.84 1-210.13 1.33s-139.84-.44-210.06-1.33c-35-.44-70-.51-105-1.47s-70-2.87-105-7.8v-5.74c35-4.64 70-6.7 105-7.88s70.06-1 105-1.47c70.07-.88 139.85-1 210.06-1.32s139.84.44 210.13 1.32c35 .44 70 .52 105 1.47a1008.55 1008.55 0 0 1 105 7.88z"/></g><g id="clear_rectangle" data-name="clear rectangle"><path class="c10" d="M0 0h1600v1168H0z"/></g></svg>
